!!!OTL: Pomp and Circumstance
!!!COM: Elgar
!!!ODT: unknown
!!!YOR: Complete Church Pianist
!!!YOY: 2000
!!!AST: Occasional
!!!YEC: Brian Luke, 2001
**kern	**harm
*k[f#]	*k[f#]
*M2/4	*M2/4
*G:	*G:
*>A	*>A
=1	=1
2g	I
=2	=2
8f#	V7
8g	.
4a	.
=3	=3
2e	I
=4	=4
2d	.
=5	=5
2c	IV
=6	=6
8B	I
8c	.
4d	.
=7	=7
[2A	V7/V
=8	=8
2A]	V7
=9	=9
2B	I
=10	=10
8c#	V7/V
4d	.
8e	.
=11	=11
2a	V
=12	=12
2d	iii
=13	=13
2g	vi
=14	=14
8g	V7/V
4f#	.
8e	.
=15	=15
[2d	V;
=16	=16
2d]	V7
*>A'	*>A'
=17	=17
2g	I
=18	=18
8f#	V7
8g	.
4a	.
=19	=19
2e	I
=20	=20
2d	.
=21	=21
2c	IV
=22	=22
8B	I
8c	.
4d	.
=23	=23
[2A	V7/V
=24	=24
2A]	V
=25	=25
2B	I
=26	=26
8c#	V7/V
4d	.
8e	.
=27	=27
2a	V
=28	=28
2d	.
=29	=29
2cc	IV
=30	=30
8cc	V7
4b	.
8a	.
=31	=31
2b	I
=32	=32
4f#	.
4f	V7/IV
=33	=33
2e	IV
=34	=34
8f#	V7
4g	.
8a	.
=35	=35
2d	I
=36	=36
2g	vi
=37	=37
2cc	ii7
=38	=38
8cc	V7
4b	.
8a	.
=39	=39
[2g	I;
=40	=40
2g]	.
*-	*-
